X: 060424
T: Flavor of the Month
C: Brendan Callahan (via IRTRAD)
Z: B.Black
M: 4/4
L: 1/8
R: reel
K: Gm
DE | G3 A BGGA | BGcG dGGF | DFFd cAFA |\
BGAF GFDC |
B,DGA BGGA | BGcG dGGF | DFFd cAFA |1 BdAF G2 :|2\
BdAF G3 || 
d | g4 bgdg | fdce dBGB | AFcF dFcF | BdAF GFDc | 
BGDG AFDc | BGD=B cA^FA | dg (3gfg fdcA |\
|1 BdA^F G3 :|2 BdAF G2 ||
